icons/glyphs/glyph-pen1.svg

<?xml version="1.0" encoding="UTF-8" standalone="no"?><svg height="16" viewBox="0 0 4.2333333 4.2333333" width="16" xmlns="http://www.w3.org/2000/svg"><sodipodi:namedview/><metadata><rdf:RDF><cc:Work><dc:format>image/svg+xml</dc:format><dc:type/><dc:title/></cc:Work></rdf:RDF></metadata><g fill="#d0d0d0" opacity=".75" transform="matrix(.00037933 -.00005398 -.00005398 -.00037933 .217798 2.424771)"><path d="m9471.8 4996c-30.700000000001-15.4-172.700000000001-143.9-314.6-285.9l-259-260.9-71 65.2c-99.799999999999 88.3-203.4 119-308.9 88.3-72.9-21.1-262.9-205.300000000001-1515.699999999999-1456.200000000001-790.5-788.5-1435.1-1440.9-1435.1-1452.4 0-9.6 239.8-259 531.4-550.6l533.4-533.4 934.4 934.4c514.2 514.2 940.1 928.6 947.799999999999 920.9 25-24.9 11.5-483.5-19.200000000001-627.4-15.299999999997-78.7-65.199999999997-216.8-109.299999999997-307-78.700000000001-161.2-86.299999999999-170.8-1245.2-1333.4-640.900000000001-642.7-1176.2-1189.5-1187.7-1212.5-32.6-63.3-24.9-191.9 15.4-270.5 67.1-132.4 270.5-199.5 401-130.5 90.2 48 2388.600000000001 2369.4 2469.200000000001 2496.1 234.1 360.7 341.5 849.9 297.4 1352.6-17.299999999999 199.5-49.9 393.3-88.200000000001 533.4-11.5 38.4 23 80.6 237.9 297.4 203.4 207.2 251.299999999999 266.7 262.9 326.2 24.9 126.6-3.799999999999 203.4-115.1 318.5l-103.6 107.4 276.299999999999 278.2c226.4 230.2 276.299999999999 291.6 287.799999999999 351.1 47.700000000001 253.1-194 454.6-422.299999999999 351" fill="#d0d0d0"/><path d="m3253.7-602.4c-1648.1-1650-1884-1895.6-2045.2-2112.4-320.4-431.7-698.4-1105.1-974.6-1730.6-178.4-401-178.4-362.6 0-297.4 550.6 203.4 1281.6 556.4 1717.1 830.7 425.9 268.6 502.7 341.5 2417.4 2256.2l1841.8 1843.9-537.2 537.2c-295.5 295.5-541 537.2-546.8 537.2s-848-840.3-1872.5-1864.8" fill="#d0d0d0"/></g></svg>

<?xml version="1.0" encoding="UTF-8" standalone="no"?>
<!-- Created with Inkscape (http://www.inkscape.org/) -->

<svg
   xmlns:dc="http://purl.org/dc/elements/1.1/"
   xmlns:cc="http://creativecommons.org/ns#"
   xmlns:rdf="http://www.w3.org/1999/02/22-rdf-syntax-ns#"
   xmlns:svg="http://www.w3.org/2000/svg"
   xmlns="http://www.w3.org/2000/svg"
   xmlns:sodipodi="http://sodipodi.sourceforge.net/DTD/sodipodi-0.dtd"
   xmlns:inkscape="http://www.inkscape.org/namespaces/inkscape"
   width="16"
   height="16"
   viewBox="0 0 4.2333333 4.2333333"
   version="1.1"
   id="svg8"
   inkscape:version="0.92+devel (4546dc857e, 2017-07-25, custom)"
   sodipodi:docname="glyph-pen1.svg">
  <defs
     id="defs2" />
  <sodipodi:namedview
     id="base"
     pagecolor="#002466"
     bordercolor="#ffffff"
     borderopacity="0.38039216"
     inkscape:pageopacity="1"
     inkscape:pageshadow="2"
     inkscape:zoom="54.75"
     inkscape:cx="8"
     inkscape:cy="8"
     inkscape:document-units="px"
     inkscape:current-layer="svg8"
     inkscape:document-rotation="0"
     showgrid="false"
     inkscape:showpageshadow="false"
     borderlayer="true"
     inkscape:window-width="1920"
     inkscape:window-height="1051"
     inkscape:window-x="0"
     inkscape:window-y="0"
     inkscape:window-maximized="1"
     units="px" />
  <metadata
     id="metadata5">
    <rdf:RDF>
      <cc:Work
         rdf:about="">
        <dc:format>image/svg+xml</dc:format>
        <dc:type
           rdf:resource="http://purl.org/dc/dcmitype/StillImage" />
        <dc:title></dc:title>
      </cc:Work>
    </rdf:RDF>
  </metadata>
  <g
     opacity=".75"
     fill="#fbfbfb"
     transform="matrix(3.7932767e-4,-5.3975478e-5,-5.3975478e-5,-3.7932767e-4,0.21779795,2.4247708)"
     id="g37"
     style="fill:#d0d0d0">
    <path
       d="m 9471.8,4996 c -30.7,-15.4 -172.7,-143.9 -314.6,-285.9 l -259,-260.9 -71,65.2 c -99.8,88.3 -203.4,119 -308.9,88.3 C 8445.4,4581.6 8255.4,4397.4 7002.6,3146.5 6212.1,2358 5567.5,1705.6 5567.5,1694.1 c 0,-9.6 239.8,-259 531.4,-550.6 l 533.4,-533.4 934.4,934.4 c 514.2,514.2 940.1,928.6 947.8,920.9 25,-24.9 11.5,-483.5 -19.2,-627.4 C 8480,1759.3 8430.1,1621.2 8386,1531 8307.3,1369.8 8299.7,1360.2 7140.8,197.6 6499.9,-445.1 5964.6,-991.9 5953.1,-1014.9 c -32.6,-63.3 -24.9,-191.9 15.4,-270.5 67.1,-132.4 270.5,-199.5 401,-130.5 90.2,48 2388.6,2369.4 2469.2,2496.1 234.1,360.7 341.5,849.9 297.4,1352.6 -17.3,199.5 -49.9,393.3 -88.2,533.4 -11.5,38.4 23,80.6 237.9,297.4 203.4,207.2 251.3,266.7 262.9,326.2 24.9,126.6 -3.8,203.4 -115.1,318.5 l -103.6,107.4 276.3,278.2 c 226.4,230.2 276.3,291.6 287.8,351.1 47.7,253.1 -194,454.6 -422.3,351"
       id="path33"
       inkscape:connector-curvature="0"
       style="fill:#d0d0d0" />
    <path
       d="M 3253.7,-602.4 C 1605.6,-2252.4 1369.7,-2498 1208.5,-2714.8 888.1,-3146.5 510.1,-3819.9 233.9,-4445.4 c -178.4,-401 -178.4,-362.6 0,-297.4 550.6,203.4 1281.6,556.4 1717.1,830.7 425.9,268.6 502.7,341.5 2417.4,2256.2 L 6210.2,188 5673,725.2 c -295.5,295.5 -541,537.2 -546.8,537.2 -5.8,0 -848,-840.3 -1872.5,-1864.8"
       id="path35"
       inkscape:connector-curvature="0"
       style="fill:#d0d0d0" />
  </g>
</svg>
